X: 4364
T: Bolies Road
R: reel
M: 4/4
K: Amajor
|:AEEE ABce|BAGA Bcdf|ecce faec|dBGA B2cB|
AEEE ABce|BAGA Bcdf|ecce faec|1 BAGB AEcB:|2 BAGB ABce||
|:dffd fgaf|e2ef ecBc|AEEE ABce|dfed ceag|
f2de fgaf|e2ef ecBc|AEEE ABce|1 BAGB ABce:|2 BAGB AEFG||

